dist/svgs/unicons/solid/flip-v.svg

<svg xmlns="http://www.w3.org/2000/svg" viewBox="0 0 24 24"><path d="M12 2c-.6 0-1 .4-1 1v18c0 .6.4 1 1 1s1-.4 1-1V3c0-.6-.4-1-1-1zm9.7 9.3l-5-5c-.2-.2-.4-.3-.7-.3-.6 0-1 .4-1 1v10c0 .6.4 1 1 1 .3 0 .5-.1.7-.3l5-5c.4-.4.4-1 0-1.4zM3.8 9.8l-1.1 1.1c-.1.1-.1.2-.2.3-.1 0-.2.1-.3.2-.4.4-.4 1 0 1.4l1.1 1.1c.2.2.4.3.7.3.3 0 .5-.1.7-.3.4-.4.4-1 0-1.4l-.3-.5.8-.8c.4-.4.4-1 0-1.4s-1-.4-1.4 0zm3.8 5.4c-.4-.4-1-.4-1.4 0-.4.4-.4 1 0 1.4l1.1 1.1c.1.1.4.3.6.3.3 0 .5-.1.7-.3.4-.4.4-1 0-1.4l-1-1.1zm-.3-8.9l-.7.7c-.2.1-.3.4-.3.7 0 .6.4 1 1 1 .2 0 .3 0 .5-.1H8c.6 0 1-.4 1-1V7c0-.3-.1-.5-.3-.7-.4-.4-1-.4-1.4 0zm.7 4.3c-.6 0-1 .4-1 1v1.5c0 .6.4 1 1 1s1-.4 1-1v-1.5c0-.6-.4-1-1-1z"/></svg>

<svg xmlns="http://www.w3.org/2000/svg" enable-background="new 0 0 24 24" viewBox="0 0 24 24"><path d="M12,2c-0.6,0-1,0.4-1,1v18c0,0.6,0.4,1,1,1h0c0.6,0,1-0.4,1-1V3C13,2.4,12.6,2,12,2z M21.7,11.3l-5-5C16.5,6.1,16.3,6,16,6c-0.6,0-1,0.4-1,1v10c0,0.6,0.4,1,1,1c0.3,0,0.5-0.1,0.7-0.3l5-5C22.1,12.3,22.1,11.7,21.7,11.3z M3.8,9.8l-1.1,1.1c-0.1,0.1-0.1,0.2-0.2,0.3c-0.1,0-0.2,0.1-0.3,0.2c-0.4,0.4-0.4,1,0,1.4l1.1,1.1c0.2,0.2,0.4,0.3,0.7,0.3h0c0.3,0,0.5-0.1,0.7-0.3c0.4-0.4,0.4-1,0-1.4L4.4,12l0.8-0.8c0.4-0.4,0.4-1,0-1.4S4.2,9.4,3.8,9.8z M7.6,15.2c-0.4-0.4-1-0.4-1.4,0c-0.4,0.4-0.4,1,0,1.4l1.1,1.1C7.4,17.8,7.7,18,7.9,18l0,0c0.3,0,0.5-0.1,0.7-0.3c0.4-0.4,0.4-1,0-1.4L7.6,15.2z M7.3,6.3L6.6,7C6.4,7.1,6.3,7.4,6.3,7.7c0,0.6,0.4,1,1,1c0.2,0,0.3,0,0.5-0.1c0.1,0,0.1,0,0.2,0c0.6,0,1-0.4,1-1V7c0-0.3-0.1-0.5-0.3-0.7C8.3,5.9,7.7,5.9,7.3,6.3z M8,10.6c-0.6,0-1,0.4-1,1v1.5c0,0.6,0.4,1,1,1h0c0.6,0,1-0.4,1-1v-1.5C9,11,8.6,10.6,8,10.6z"/></svg>
